icons/svg/sport/free_flying.svg

<?xml version="1.0" encoding="UTF-8" standalone="no"?>
<!-- Created with Inkscape (http://www.inkscape.org/) -->

<svg
   xmlns:dc="http://purl.org/dc/elements/1.1/"
   xmlns:cc="http://creativecommons.org/ns#"
   xmlns:rdf="http://www.w3.org/1999/02/22-rdf-syntax-ns#"
   xmlns:svg="http://www.w3.org/2000/svg"
   xmlns="http://www.w3.org/2000/svg"
   xmlns:sodipodi="http://sodipodi.sourceforge.net/DTD/sodipodi-0.dtd"
   xmlns:inkscape="http://www.inkscape.org/namespaces/inkscape"
   version="1.0"
   width="580"
   height="580"
   id="svg2"
   sodipodi:version="0.32"
   inkscape:version="0.48.4 r9939"
   sodipodi:docname="golf.svg"
   inkscape:output_extension="org.inkscape.output.svg.inkscape">
  <metadata
     id="metadata2975">
    <rdf:RDF>
      <cc:Work
         rdf:about="">
        <dc:format>image/svg+xml</dc:format>
        <dc:type
           rdf:resource="http://purl.org/dc/dcmitype/StillImage" />
        <cc:license
           rdf:resource="http://web.resource.org/cc/PublicDomain" />
        <dc:language>en</dc:language>
        <dc:title></dc:title>
      </cc:Work>
    </rdf:RDF>
  </metadata>
  <sodipodi:namedview
     inkscape:window-height="1004"
     inkscape:window-width="1920"
     inkscape:pageshadow="2"
     inkscape:pageopacity="0.0"
     guidetolerance="10.0"
     gridtolerance="10.0"
     objecttolerance="10.0"
     borderopacity="1.0"
     bordercolor="#666666"
     pagecolor="#ffffff"
     id="base"
     inkscape:zoom="0.46083856"
     inkscape:cx="274.38808"
     inkscape:cy="382.12323"
     inkscape:window-x="1680"
     inkscape:window-y="0"
     inkscape:current-layer="svg2"
     showgrid="false"
     inkscape:window-maximized="1" />
  <defs
     id="defs4">
    <inkscape:perspective
       sodipodi:type="inkscape:persp3d"
       inkscape:vp_x="0 : 290 : 1"
       inkscape:vp_y="0 : 1000 : 0"
       inkscape:vp_z="580 : 290 : 1"
       inkscape:persp3d-origin="290 : 193.33333 : 1"
       id="perspective10" />
  </defs>
  <g
     id="g1327">
    <path
       d="M 66.275,1.768 C 24.94,1.768 1.704,23.139 1.704,66.804 l 0,450.123 c 0,40.844 20.895,62.229 62.192,62.229 l 452.024,0 c 41.307,0 62.229,-20.315 62.229,-62.229 l 0,-450.123 c 0,-42.601 -20.922,-65.036 -63.521,-65.036 -0.004,0 -448.495,-0.143 -448.353,0 z"
       style="fill:#111111;stroke:#eeeeee;stroke-width:3.40799999"
       id="path1329"
       inkscape:connector-curvature="0" />
  </g>
  <circle
     transform="matrix(18.221908,0,0,18.221908,53.259442,53.317952)"
     sodipodi:ry="2"
     sodipodi:rx="2"
     sodipodi:cy="19"
     sodipodi:cx="8"
     cx="8"
     cy="19"
     r="2"
     id="circle3"
     style="fill:#ffffff;fill-opacity:1" />
  <path
     inkscape:connector-curvature="0"
     d="m 133.43584,423.22268 83.82078,47.37696 -32.79944,43.73258 c -10.93314,12.75533 -29.15505,16.39972 -43.73258,7.28876 l -18.2219,-10.93314 c -12.75534,-7.28877 -16.39972,-21.86629 -10.93315,-34.62163 l 21.86629,-52.84353 z"
     id="path5"
     style="fill:#ffffff;fill-opacity:1" />
  <polyline
     transform="matrix(18.221908,0,0,18.221908,53.259442,53.317952)"
     style="fill:none;stroke:#ffffff;stroke-width:1.5;stroke-linecap:round;stroke-linejoin:round;stroke-miterlimit:10;stroke-opacity:1"
     stroke-miterlimit="10"
     points="  3.8,17 3.4,19.4 4.6,21.2 "
     id="polyline7" />
  <polyline
     transform="matrix(18.221908,0,0,18.221908,53.259442,53.317952)"
     style="fill:none;stroke:#ffffff;stroke-width:1.5;stroke-linecap:round;stroke-linejoin:round;stroke-miterlimit:10;stroke-opacity:1"
     stroke-miterlimit="10"
     points="  12.2,21.7 10.2,23.1 7.6,23.2 "
     id="polyline9" />
  <path
     inkscape:connector-curvature="0"
     d="m 66.014782,146.24968 c -27.33286,-3.64438 -10.93314,-92.931728 41.910388,-92.931728 236.88481,0 419.10393,169.463738 419.10393,309.772428 0,21.86629 -60.1323,67.42106 -71.0655,49.19915 C 383.07598,290.20275 239.12291,166.29378 66.014782,146.24968 z"
     id="path11"
     style="fill:#ffffff;fill-opacity:1" />
  <line
     style="fill:none;stroke:#ffffff;stroke-width:18.22190857;stroke-linejoin:round;stroke-miterlimit:10;stroke-opacity:1"
     stroke-miterlimit="10"
     x1="299.25519"
     y1="439.62234"
     x2="454.14142"
     y2="395.88989"
     id="line13" />
  <line
     style="fill:none;stroke:#ffffff;stroke-width:18.22190857;stroke-linejoin:round;stroke-miterlimit:10;stroke-opacity:1"
     stroke-miterlimit="10"
     x1="118.85784"
     y1="335.75784"
     x2="87.881523"
     y2="135.31683"
     id="line15" />
</svg>

<svg width="580" height="580" viewBox="0 0 580 580" fill="none" xmlns="http://www.w3.org/2000/svg">
<g clip-path="url(#clip0)">
<path d="M66.2751 1.76815C24.9401 1.76815 1.7041 23.1391 1.7041 66.8041V516.927C1.7041 557.771 22.5991 579.156 63.8961 579.156H515.92C557.227 579.156 578.149 558.841 578.149 516.927V66.8041C578.149 24.2031 557.227 1.76815 514.628 1.76815C514.624 1.76815 66.1331 1.62515 66.2751 1.76815V1.76815Z" fill="#111111" stroke="#EEEEEE" stroke-width="3.408"/>
<path d="M199.035 435.978C219.162 435.978 235.478 419.662 235.478 399.534C235.478 379.407 219.162 363.09 199.035 363.09C178.907 363.09 162.591 379.407 162.591 399.534C162.591 419.662 178.907 435.978 199.035 435.978Z" fill="white"/>
<path d="M133.436 423.223L217.257 470.6L184.457 514.332C173.524 527.088 155.302 530.732 140.725 521.621L122.503 510.688C109.747 503.399 106.103 488.822 111.57 476.066L133.436 423.223V423.223Z" fill="white"/>
<path d="M122.503 363.09L115.214 406.823L137.08 439.622" stroke="white" stroke-width="27.3329" stroke-miterlimit="10" stroke-linecap="round" stroke-linejoin="round"/>
<path d="M275.567 448.733L239.123 474.244L191.746 476.066" stroke="white" stroke-width="27.3329" stroke-miterlimit="10" stroke-linecap="round" stroke-linejoin="round"/>
<path d="M66.0148 146.25C38.682 142.605 55.0817 53.3179 107.925 53.3179C344.81 53.3179 527.029 222.782 527.029 363.09C527.029 384.957 466.897 430.511 455.964 412.289C383.076 290.203 239.123 166.294 66.0148 146.25Z" fill="white"/>
<path d="M299.255 439.622L454.141 395.89" stroke="white" stroke-width="18.2219" stroke-miterlimit="10" stroke-linejoin="round"/>
<path d="M118.858 335.758L87.8816 135.317" stroke="white" stroke-width="18.2219" stroke-miterlimit="10" stroke-linejoin="round"/>
</g>
<defs>
<clipPath id="clip0">
<path d="M0 0H580V580H0V0Z" fill="white"/>
</clipPath>
</defs>
</svg>
